lib/healthicons/icons/solid/devices/clinical_a.svg

<svg fill="none" height="48" viewBox="0 0 48 48" width="48" xmlns="http://www.w3.org/2000/svg"><path clip-rule="evenodd" d="m19 4c-.5523 0-1 .44772-1 1v4c0 .55228.4477 1 1 1h1v1.2729c-.5826.2059-1 .7615-1 1.4146v26.3125c0 2.7614 2.2386 5 5 5s5-2.2386 5-5v-26.3125c0-.6531-.4174-1.2087-1-1.4146v-1.2729h1c.5523 0 1-.44772 1-1v-4c0-.55228-.4477-1-1-1zm3 7.6875v-1.6875h4v1.6875c0 .6531.4174 1.2087 1 1.4146v4.8979h-6v-4.8979c.5826-.2059 1-.7615 1-1.4146z" fill="#333" fill-rule="evenodd"/></svg>

<svg width="48" height="48" viewBox="0 0 48 48" fill="none" xmlns="http://www.w3.org/2000/svg">
<path fill-rule="evenodd" clip-rule="evenodd" d="M19 4C18.4477 4 18 4.44772 18 5V8C18 8.55228 18.4477 9 19 9H20V11.2729C19.4174 11.4788 19 12.0344 19 12.6875V39C19 41.7614 21.2386 44 24 44C26.7614 44 29 41.7614 29 39V12.6875C29 12.0344 28.5826 11.4788 28 11.2729V9H29C29.5523 9 30 8.55228 30 8V5C30 4.44772 29.5523 4 29 4H19ZM22 11.6875V9H26V11.6875C26 12.3406 26.4174 12.8962 27 13.1021V18H21V13.1021C21.5826 12.8962 22 12.3406 22 11.6875Z" fill="#333333"/>
</svg>
